X: 16385
T: Gwanwitcha, The
R: reel
M: 4/4
K: Emajor
Bc c/c/c gcfc|cccc fcec|dc c/c/c dcec|BBeB dBeB|
Bc c/c/c gcfc|cccc fcec|dc c/c/c dcec|BBeB dBeB:|
CEGB cde2|edef gBde|AAeA deAe|GAeG FEGE|
CEGB cde2|edef gage|BBeB gage|effe gage:|
cccc efcc|c/c/c Bc AcGc|cccc egfB|B/B/B dB fBdB|
cccc efcc|c/c/c fg ccgc|gage eege|fdBB Bdde:|

